resources/svg/calendar-tick-o.svg

<svg xmlns="http://www.w3.org/2000/svg" viewBox="0 0 15 15" fill="none"><path d="M3.5 0V5M11.5 0V5M5 8.5L7 10.5L10.5 6.5M1.5 2.5H13.5C14.0523 2.5 14.5 2.94772 14.5 3.5V13.5C14.5 14.0523 14.0523 14.5 13.5 14.5H1.5C0.947716 14.5 0.5 14.0523 0.5 13.5V3.5C0.5 2.94772 0.947715 2.5 1.5 2.5Z" stroke="black"/></svg>

<svg xmlns="http://www.w3.org/2000/svg" viewBox="0 0 15 15" fill="none"><path d="M3.5 0v5m8-5v5M5 8.5l2 2 3.5-4m-9-4h12a1 1 0 011 1v10a1 1 0 01-1 1h-12a1 1 0 01-1-1v-10a1 1 0 011-1z" stroke="currentColor"/></svg>
